X: 113
T: J'ay pris amours I
N: Derived from Mar3013-Jay_pris_amours_I.krn
C: Johannes Martini
%%abc-version 2.0
%%abcx-abcm2ps-target-version 5.9.1 (29 Sep 2008)
%%abc-creator hum2abc beta
%%abcx-conversion-date 2019/02/17 07:19:43
%%abc-edited-by Jesse Rodin
%%abc-edited-by Chris Gage 11-06-2014
%%abcx-initial-encoding-date 2015/03/01/
%%humdrum-veritas 2228092217
%%humdrum-veritas-data 354664390
%%linebreak <none>
%%barnumbers 0
L: 1/4
M: 2/1
Q: 1/2=120
%%staves [1 2 3 4]
V: 1 clef=treble
V: 2 clef=treble-8
V: 3 clef=treble-8
V: 4 clef=treble-8
K: C
[V:1] A8 | 
[V:2] A8 | 
[V:3] A3Bc3d | 
[V:4] z2A3Bc2- | 
[V:1] c4c4 | 
[V:2] A4A4 | 
[V:3] e2A2e2e2- | 
[V:4] cde2A2e2 | 
[V:1] B8 | 
[V:2] G8 | 
[V:3] edB2z2e2 | 
[V:4] e3dB2z2 | 
[V:1] E8 | 
[V:2] A6G2 | 
[V:3] c2A2c3d | 
[V:4] e2c2A2c2- | 
[V:1] z4G4 | 
[V:2] E8 | 
[V:3] e2c2z2e2 | 
[V:4] cde2c2z2 | 
[V:1] A4B4 | 
[V:2] z4G4 | 
[V:3] cdefg2e2 | 
[V:4] e2cdefg2 | 
[V:1] c4B2G2 | 
[V:2] A4B4 | 
[V:3] cde2E2z2 | 
[V:4] e2cde2E2 | 
[V:1] A4G4 | 
[V:2] c4B2G2 | 
[V:3] C2E2G2z2 | 
[V:4] z2C2E2G2 | 
[V:1] z4B4 | 
[V:2] A4G4 | 
[V:3] c2e2g3f | 
[V:4] z2c2e2g2- | 
[V:1] c4d4 | 
[V:2] z4B4 | 
[V:3] efgfd2z2 | 
[V:4] gfefgfd2 | 
[V:1] e4d2B2 | 
[V:2] c4d4 | 
[V:3] g4G4 | 
[V:4] z2g4G2- | 
[V:1] c2A4B2 | 
[V:2] e2c4d2 | 
[V:3] C2z2F3G | 
[V:4] G2C2z2F2- | 
[V:1] A2^F2^G4 | 
[V:2] c2A2B4 | 
[V:3] A2z2E2e2 | 
[V:4] FGA2z2E2 | 
[V:1] A8 | 
[V:2] A8 | 
[V:3] c3defe2 | 
[V:4] e2c3def | 
[V:1] z8 | 
[V:2] A4G4 | 
[V:3] A2z2B2d2- | 
[V:4] e2A2z2B2 | 
[V:1] A8 | 
[V:2] F8 | 
[V:3] dcA2c3B | 
[V:4] d3cA2c2- | 
[V:1] c4B4- | 
[V:2] E8 | 
[V:3] G4z2G2 | 
[V:4] cBG4z2 | 
[V:1] B4G4 | 
[V:2] z4e4 | 
[V:3] EFG2C2c2 | 
[V:4] G2EFG2C2 | 
[V:1] A4G4- | 
[V:2] f4e4 | 
[V:3] F2c3de2- | 
[V:4] c2F2c3d | 
[V:1] G4c4- | 
[V:2] c8 | 
[V:3] efg2e2g2 | 
[V:4] e3fg2e2 | 
[V:1] c2A2B4 | 
[V:2] d8 | 
[V:3] GABAGFG2 | 
[V:4] g2GABAGF | 
[V:1] c8 | 
[V:2] c8- | 
[V:3] C2E3FG2 | 
[V:4] G2C2E3F | 
[V:1] z8 | 
[V:2] c4B4 | 
[V:3] C2G2E2e2 | 
[V:4] G2C2G2E2 | 
[V:1] c8 | 
[V:2] A8 | 
[V:3] c3de3f | 
[V:4] e2c3de2- | 
[V:1] B4G4 | 
[V:2] G4c4- | 
[V:3] g2e2c2z2 | 
[V:4] efg2e2c2 | 
[V:1] A8 | 
[V:2] c4d4 | 
[V:3] A2F2D2z2 | 
[V:4] z2A2F2D2 | 
[V:1] G4E4- | 
[V:2] e8 | 
[V:3] E2C2c3d | 
[V:4] z2E2C2c2- | 
[V:1] E4A4- | 
[V:2] A8 | 
[V:3] e2A2c3d | 
[V:4] cde2A2c2- | 
[V:1] A4G4 | 
[V:2] c4B4 | 
[V:3] e3EE3C | 
[V:4] cde3EE2- | 
[V:1] A4B4 | 
[V:2] c4d4 | 
[V:3] C2z2GAB2 | 
[V:4] ECC2z2GA | 
[V:1] G8 | 
[V:2] e6dc | 
[V:3] E4E2E2- | 
[V:4] B2E4E2 | 
[V:1] z8 | 
[V:2] B4z4 | 
[V:3] EFG3FED | 
[V:4] E3FG3F | 
[V:1] G8 | 
[V:2] E8 | 
[V:3] G2C2c2c2 | 
[V:4] EDG2C2c2 | 
[V:1] A6G2 | 
[V:2] F4E4 | 
[V:3] A2c2z2c2 | 
[V:4] c2A2c2z2 | 
[V:1] F2E2E4- | 
[V:2] A4G4 | 
[V:3] c3de2z2 | 
[V:4] c2c3de2 | 
[V:1] E4D4 | 
[V:2] F8 | 
[V:3] A2c2A2z2 | 
[V:4] z2A2c2A2 | 
[V:1] E8 | 
[V:2] E8- | 
[V:3] G2c3Bc2 | 
[V:4] z2G2c3B | 
[V:1] z4B4 | 
[V:2] E8 | 
[V:3] G3AB3c | 
[V:4] c2G3AB2- | 
[V:1] B4B4 | 
[V:2] z4G4 | 
[V:3] d2G2g2e2 | 
[V:4] Bcd2G2g2 | 
[V:1] c6BA | 
[V:2] A4B4 | 
[V:3] c2z2G2E2 | 
[V:4] e2c2z2G2 | 
[V:1] G4A4 | 
[V:2] c6B2 | 
[V:3] C3DE3F | 
[V:4] E2C3DE2- | 
[V:1] B4G4- | 
[V:2] G4B4 | 
[V:3] G2d3dd2 | 
[V:4] EFG2d3d | 
[V:1] G2^F2F2E2 | 
[V:2] A8 | 
[V:3] D2z2D2d2- | 
[V:4] d2D2z2D2 | 
[V:1] G8 | 
[V:2] G8- | 
[V:3] dcB3AG2- | 
[V:4] d3cB3A | 
[V:1] z4E4 | 
[V:2] G8 | 
[V:3] GAB2E2z2 | 
[V:4] G3AB2E2 | 
[V:1] F4G4 | 
[V:2] z4E4 | 
[V:3] A2c2G2c2 | 
[V:4] z2A2c2G2 | 
[V:1] A4E4 | 
[V:2] F4G4 | 
[V:3] A2z2B2e2 | 
[V:4] c2A2z2B2 | 
[V:1] z4G4 | 
[V:2] A4E4 | 
[V:3] c3de3d | 
[V:4] e2c3de2- | 
[V:1] A4G4 | 
[V:2] z4G4 | 
[V:3] c2e3ee2- | 
[V:4] edc2e3e | 
[V:1] c6B2 | 
[V:2] A4G4 | 
[V:3] edefg2e2 | 
[V:4] e3defg2 | 
[V:1] A4G4 | 
[V:2] c6B2 | 
[V:3] c2e3ee2- | 
[V:4] e2c2e3e | 
[V:1] c4B2e2- | 
[V:2] A4G4 | 
[V:3] edefg2e2 | 
[V:4] e3defg2 | 
[V:1] e2d2B4 | 
[V:2] c4d4 | 
[V:3] c2z2f3e | 
[V:4] e2c2z2f2- | 
[V:1] c4A4- | 
[V:2] A8 | 
[V:3] cde2A2z2 | 
[V:4] fecde2A2 | 
[V:1] A2^F2^G4 | 
[V:2] B8 | 
[V:3] E6e2- | 
[V:4] z2E6 | 
[V:1] A8- | 
[V:2] A8- | 
[V:3] e4c3d | 
[V:4] e6c2- | 
[V:1] A8 |]  
[V:2] A8 |]  
[V:3] e8 |]  
[V:4] cde6 |]  



